src/img/clients/kirovsky.svg

<svg width="341" height="78" viewBox="0 0 341 78" fill="none" xmlns="http://www.w3.org/2000/svg">
<g clip-path="url(#clip0_4258_10153)">
<path d="M90.5 7.4V15.7L98 7.4H108L98.5 17.1L109 33.1H98.8L92.5 22.8L90.5 24.9V33.1H82V7.4H90.5ZM129.5 7.4H137.5V33.2H129.4V25L129.8 18.4L120.4 33.2H112.4V7.4H120.6V15.6L120 22L129.4 7.3L129.5 7.4ZM151.1 13.4V19.2H154.6C155.488 19.2511 156.368 19.0048 157.1 18.5C157.434 18.2208 157.698 17.8675 157.872 17.4682C158.046 17.069 158.124 16.6347 158.1 16.2C158.1 15.8752 158.029 15.5542 157.891 15.2603C157.752 14.9664 157.551 14.7067 157.3 14.5C156.776 14.0875 156.157 13.8125 155.5 13.7L153.5 13.5H151.1V13.4ZM151.1 25.2V33.2H142.6V7.4H155C158 7.2 161 8 163.4 9.8C164.294 10.5799 165.001 11.5513 165.469 12.6419C165.936 13.7326 166.152 14.9145 166.1 16.1C166.174 17.3232 165.98 18.5478 165.531 19.6879C165.082 20.8281 164.389 21.8561 163.5 22.7C161.168 24.5145 158.248 25.4047 155.3 25.2H151H151.1ZM183.3 13.2C182.2 13.2 181.1 13.5 180.3 14.2C179.521 14.9698 178.968 15.9381 178.7 17C178.119 19.1956 178.119 21.5044 178.7 23.7C178.9 24.7 179.5 25.7 180.2 26.5C180.623 26.9081 181.125 27.2252 181.676 27.4316C182.226 27.638 182.813 27.7293 183.4 27.7C184.185 27.7546 184.97 27.5978 185.673 27.2461C186.377 26.8943 186.973 26.3605 187.4 25.7C188.2 24 188.6 22.2 188.4 20.3C188.445 19.1527 188.31 18.0055 188 16.9C187.7 15.9 187 14.9 186.2 14.2C185.383 13.4424 184.314 13.0148 183.2 13V13.1L183.3 13.2ZM183.3 6.8C186 6.8 188.6 7.5 190.9 8.8C192.9 10 194.4 11.8 195.4 13.8C196.4 15.8 196.9 18 196.9 20.3C196.9 22.9 196.4 25.4 195.1 27.7C193.953 29.7057 192.252 31.3377 190.2 32.4C188.031 33.4922 185.628 34.0413 183.2 34C179.586 34.1405 176.063 32.8465 173.4 30.4C172.113 29.0429 171.113 27.4401 170.46 25.6874C169.807 23.9348 169.515 22.0684 169.6 20.2C169.6 17.7 170.2 15.3 171.4 13.2C172.4 11.1 174.2 9.4 176.2 8.3C178.399 7.19189 180.838 6.64238 183.3 6.7V6.8V6.8ZM210.3 22.5V27.3H214.1C215.1 27.3 215.9 27.2 216.7 26.8C217.065 26.6186 217.367 26.3298 217.563 25.9723C217.76 25.6148 217.843 25.2058 217.8 24.8C217.827 24.3712 217.715 23.9452 217.481 23.585C217.247 23.2248 216.903 22.9495 216.5 22.8C215.4 22.6 214.2 22.4 213.1 22.5H210.4H210.3ZM210.3 13.5V17.8H213.9C214.6 17.8 215.3 17.7 215.9 17.3C216.214 17.1188 216.473 16.8557 216.649 16.5386C216.826 16.2215 216.912 15.8625 216.9 15.5C216.9 14.5 216.5 14 215.7 13.8C215 13.6 214.1 13.5 213.3 13.5H210.3ZM202 33.3V7.4H214.4C216.2 7.4 218 7.5 219.7 7.9C221.1 8.2 222.5 8.9 223.5 9.9C224.5 11 225 12.4 224.9 13.9C224.917 15.1082 224.568 16.2932 223.9 17.3C223.2 18.3 222.4 19 221.5 19.5C222.8 19.8 224 20.6 224.7 21.7C225.474 22.779 225.894 24.072 225.9 25.4C225.983 26.5881 225.737 27.7761 225.19 28.8342C224.644 29.8923 223.817 30.7799 222.8 31.4C220.312 32.7202 217.513 33.3422 214.7 33.2H202V33.3ZM254 17.3H245.8C245.8 16.2 245.3 15.1 244.4 14.3C243.5 13.5 242.4 13.1 241.2 13.1C240.492 13.0937 239.795 13.2755 239.18 13.6269C238.565 13.9783 238.054 14.4866 237.7 15.1C236.7 16.7 236.3 18.7 236.5 20.6C236.5 21.8 236.5 23 236.8 24.1C237.022 25.0998 237.546 26.0074 238.3 26.7C239.3 27.4 240.4 27.7 241.6 27.7C242.163 27.7068 242.722 27.5945 243.239 27.3705C243.756 27.1465 244.22 26.8158 244.6 26.4C245.4 25.5 245.9 24.4 245.9 23.4H254.2C253.9 26.4 252.5 29.1 250.2 31.2C247.8 33.1 244.8 34.1 241.7 34C238.009 34.134 234.415 32.8041 231.7 30.3C230.424 28.9766 229.429 27.4081 228.775 25.6893C228.122 23.9705 227.825 22.1371 227.9 20.3C227.9 17.9 228.5 15.4 229.7 13.2C230.7 11.2 232.4 9.5 234.3 8.3C236.3 7.2 238.6 6.6 240.9 6.6C244.3 6.4 247.5 7.4 250.2 9.4C251.32 10.382 252.233 11.5777 252.886 12.9171C253.538 14.2564 253.917 15.7125 254 17.2V17.4V17.3ZM266 7.5V15.7L273.5 7.4H283.5L274 17.1L284.5 33.1H274L268 22.9L266 25V33.2H257.5V7.4L266 7.5V7.5ZM303.9 7.5H311.9V33.2H303.7V25L304.1 18.4L294.7 33.2H286.7V7.4H294.9V15.6L294.5 22.1L303.9 7.5V7.5ZM333.1 7.5H341.1V33.2H332.9V25L333.4 18.4L324 33.2H316V7.4H324.2V15.6L323.8 22.1L333 7.5H333.1ZM322.2 0H325.1C325.129 0.416977 325.276 0.817131 325.524 1.15362C325.772 1.49011 326.11 1.749 326.5 1.9C327.3 2.2 328.1 2.3 329 2.3C329.8 2.3 330.7 2.1 331.5 1.7C331.782 1.50853 332.019 1.25666 332.191 0.96263C332.364 0.668603 332.47 0.339786 332.5 0L335.4 0C335.408 0.791753 335.231 1.57444 334.884 2.28608C334.537 2.99772 334.029 3.61875 333.4 4.1C332.1 5.1 330.4 5.6 328.8 5.5C327.2 5.6 325.6 5.2 324.3 4.3C323.672 3.77323 323.168 3.11514 322.822 2.37216C322.477 1.62918 322.298 0.819414 322.3 0L322.2 0ZM177 45C179.7 45 182.4 45.7 184.7 47C186.7 48.3 188.3 50 189.3 52.1C190.3 54.1 190.8 56.4 190.8 58.7C190.8 61.4 190.2 64 188.9 66.3C187.753 68.3057 186.052 69.9377 184 71C181.831 72.0922 179.428 72.6413 177 72.6C175.177 72.702 173.352 72.4358 171.634 71.8173C169.916 71.1988 168.34 70.2407 167 69C165.711 67.6077 164.718 65.9679 164.082 64.1801C163.446 62.3922 163.18 60.4938 163.3 58.6C163.3 56.1 163.9 53.6 165.1 51.5C166.22 49.5083 167.885 47.8777 169.9 46.8C172.082 45.6225 174.521 45.0041 177 45ZM210.1 51.8H205.1V54.6C205.1 56.7 204.9 58.8 204.6 60.8C204.325 62.5663 203.714 64.2635 202.8 65.8H210.1V51.8ZM196.8 45.7H218.8V65.9H221V78H212.8V72H200.5V78H192.3V65.9H194.5C195.5 64 196 62.1 196.3 60.1C196.7 57.6 196.8 55.1 196.8 52.5V45.7V45.7ZM92.7 61V56.2H93.4C94.4 56.3 95.5 56.2 96.4 55.7C96.7833 55.5055 97.1012 55.2029 97.3145 54.8297C97.5277 54.4565 97.627 54.029 97.6 53.6C97.6122 53.2375 97.5256 52.8785 97.3494 52.5614C97.1733 52.2443 96.9142 51.9812 96.6 51.8C95.7743 51.3501 94.8385 51.1421 93.9 51.2C93.1 51.2 92.2 51.4 91.5 51.8C91.1539 52.0221 90.859 52.3153 90.6348 52.6601C90.4107 53.005 90.2625 53.3935 90.2 53.8H83C83 52 83.7 50.2 84.9 48.8C85.9697 47.5375 87.3476 46.573 88.9 46C90.7 45.4 92.5 45 94.2 45.1C97.1 45.1 99.9 45.7 102.3 47.2C103.227 47.7688 103.997 48.5612 104.539 49.5047C105.08 50.4481 105.376 51.5124 105.4 52.6C105.4 53.9 105.1 55.1 104.4 56.1C103.7 57.1 102.7 57.9 101.6 58.5C102.9 58.9 104 59.5 104.9 60.5C105.781 61.6773 106.207 63.1334 106.1 64.6C106.144 65.7575 105.891 66.9071 105.366 67.9396C104.841 68.9722 104.061 69.8535 103.1 70.5C100.376 72.0813 97.2422 72.8126 94.1 72.6C91.0259 72.8116 87.9679 72.0032 85.4 70.3C84.3151 69.3721 83.4414 68.2227 82.8377 66.9291C82.234 65.6354 81.9142 64.2275 81.9 62.8H89.1C89.2 63.8 89.7 64.8 90.5 65.6C91.5 66.3 92.7 66.6 93.9 66.6C95 66.6 96.1 66.3 97.1 65.7C97.423 65.4792 97.6844 65.1797 97.8594 64.8297C98.0344 64.4797 98.1172 64.0909 98.1 63.7C98.1168 63.2347 97.9919 62.7752 97.7419 62.3824C97.4919 61.9896 97.1286 61.6819 96.7 61.5C95.5785 61.1009 94.3884 60.9309 93.2 61H92.6H92.7ZM118.3 63H123.8L121 53.6L118.3 63ZM116.7 45.7H125.5L134.8 71.9H126.2L125.2 68.4H116.7L115.7 71.9H107.4L116.7 45.7ZM145.7 61V65.8H149.4C150.3 65.8 151.2 65.8 152 65.4C152.347 65.2041 152.627 64.9091 152.806 64.5528C152.984 64.1965 153.051 63.7951 153 63.4C153.027 62.9712 152.915 62.5452 152.681 62.185C152.447 61.8248 152.103 61.5495 151.7 61.4C150.7 61 149.5 60.9 148.3 61H145.6H145.7ZM145.7 51.8V56.2H149.1C149.9 56.2 150.6 56.1 151.2 55.7C151.496 55.5063 151.735 55.2376 151.893 54.9214C152.051 54.6053 152.122 54.2528 152.1 53.9C152.1 52.9 151.7 52.3 151 52.2C150.2 51.9 149.4 51.8 148.6 51.9H145.6L145.7 51.8ZM137 72V45.8H149.5C151.3 45.8 153.1 45.9 154.9 46.3C156.3 46.6 157.6 47.3 158.7 48.3C159.7 49.4 160.2 50.9 160.1 52.3C160.1 53.6 159.7 54.8 159.1 55.8C158.47 56.7263 157.652 57.5098 156.7 58.1C158 58.4 159.2 59.1 159.9 60.3C160.682 61.4128 161.101 62.7399 161.1 64.1C161.179 65.3015 160.933 66.5021 160.387 67.5756C159.842 68.649 159.017 69.5556 158 70.2C155.5 71.6 152.6 72.2 149.8 72H137V72ZM177 51.5C175.9 51.5 174.8 51.9 174 52.6C173.2 53.4 172.7 54.3 172.4 55.4C171.793 57.66 171.793 60.04 172.4 62.3C172.6 63.3 173.2 64.3 173.9 65.1C174.323 65.5081 174.825 65.8252 175.376 66.0316C175.926 66.238 176.513 66.3293 177.1 66.3C177.894 66.3443 178.686 66.1724 179.39 65.8026C180.094 65.4328 180.685 64.8789 181.1 64.2C181.9 62.5 182.3 60.7 182.3 58.8C182.3 57.6 182.1 56.4 181.7 55.3C181.4 54.3 180.8 53.3 180 52.6C179.168 51.8787 178.101 51.4873 177 51.5V51.5ZM63.6 43.6L38.2 18.6L63.6 32.1V43.6ZM37.1 10.2L11.9 35.2L25.4 10.2H37.1V10.2ZM11.7 40.1L33.4 18.6L55.2 40L33.4 61.5L11.7 40V40.1ZM3.4 36.5L28.8 61.4L3.4 48.1V36.5V36.5ZM29.8 69.7L55.3 44.6L41.5 69.6H29.8V69.7ZM67 50V30.2L51.7 22.2L43.6 7H23.4L15.4 22.2L0 30.2V50L15.4 58L23.4 73H43.6L51.6 58L67 50Z" fill="#CAD5DD"/>
</g>
<defs>
<clipPath id="clip0_4258_10153">
<rect width="341" height="78" fill="white"/>
</clipPath>
</defs>
</svg>

<svg width="341" height="78" fill="none" xmlns="http://www.w3.org/2000/svg"><path d="M90.5 7.4v8.3L98 7.4h10l-9.5 9.7 10.5 16H98.8l-6.3-10.3-2 2.1v8.2H82V7.4h8.5Zm39 0h8v25.8h-8.1V25l.4-6.6-9.4 14.8h-8V7.4h8.2v8.2L120 22l9.4-14.7Zm21.6 6v5.8h3.5a4 4 0 0 0 2.5-.7 2.8 2.8 0 0 0 1-2.3 2.2 2.2 0 0 0-.8-1.7 4 4 0 0 0-1.8-.8l-2-.2h-2.4Zm0 11.8v8h-8.5V7.4H155c3-.2 6 .6 8.4 2.4a7.9 7.9 0 0 1 2.7 6.3 8.4 8.4 0 0 1-2.6 6.6 12 12 0 0 1-8.2 2.5h-4.3Zm32.2-12c-1.1 0-2.2.3-3 1a6 6 0 0 0-1.6 2.8 13.1 13.1 0 0 0 0 6.7c.2 1 .8 2 1.5 2.8a4.3 4.3 0 0 0 3.2 1.2 4.4 4.4 0 0 0 4-2c.8-1.7 1.2-3.5 1-5.4a11 11 0 0 0-.4-3.4c-.3-1-1-2-1.8-2.7a4.5 4.5 0 0 0-3-1.2v.1Zm0-6.4c2.7 0 5.3.7 7.6 2 2 1.2 3.5 3 4.5 5s1.5 4.2 1.5 6.5c0 2.6-.5 5.1-1.8 7.4a12 12 0 0 1-4.9 4.7 15 15 0 0 1-7 1.6 13.7 13.7 0 0 1-9.8-3.6 13.9 13.9 0 0 1-3.8-10.2c0-2.5.6-4.9 1.8-7 1-2.1 2.8-3.8 4.8-4.9a15 15 0 0 1 7.1-1.6v.1Zm27 15.7v4.8h3.8c1 0 1.8-.1 2.6-.5a2 2 0 0 0 1.1-2 2 2 0 0 0-1.3-2c-1.1-.2-2.3-.4-3.4-.3h-2.7Zm0-9v4.3h3.6c.7 0 1.4-.1 2-.5a2 2 0 0 0 1-1.8c0-1-.4-1.5-1.2-1.7-.7-.2-1.6-.3-2.4-.3h-3ZM202 33.3V7.4h12.4c1.8 0 3.6.1 5.3.5 1.4.3 2.8 1 3.8 2 1 1.1 1.5 2.5 1.4 4a6 6 0 0 1-1 3.4c-.7 1-1.5 1.7-2.4 2.2 1.3.3 2.5 1.1 3.2 2.2a6.4 6.4 0 0 1 1.2 3.7 6.5 6.5 0 0 1-3.1 6 15.6 15.6 0 0 1-8.1 1.8h-12.7Zm52-16h-8.2c0-1.1-.5-2.2-1.4-3-.9-.8-2-1.2-3.2-1.2a4 4 0 0 0-3.5 2c-1 1.6-1.4 3.6-1.2 5.5 0 1.2 0 2.4.3 3.5a5 5 0 0 0 1.5 2.6c1 .7 2.1 1 3.3 1a4 4 0 0 0 3-1.3c.8-.9 1.3-2 1.3-3h8.3c-.3 3-1.7 5.7-4 7.8-2.4 1.9-5.4 2.9-8.5 2.8a14 14 0 0 1-10-3.7 13.6 13.6 0 0 1-3.8-10c0-2.4.6-4.9 1.8-7.1 1-2 2.7-3.7 4.6-4.9 2-1.1 4.3-1.7 6.6-1.7 3.4-.2 6.6.8 9.3 2.8a11.2 11.2 0 0 1 3.8 7.8v.2Zm12-9.8v8.2l7.5-8.3h10l-9.5 9.7 10.5 16H274L268 22.9l-2 2.1v8.2h-8.5V7.4l8.5.1Zm37.9 0h8v25.7h-8.2V25l.4-6.6-9.4 14.8h-8V7.4h8.2v8.2l-.4 6.5 9.4-14.6Zm29.2 0h8v25.7h-8.2V25l.5-6.6-9.4 14.8h-8V7.4h8.2v8.2l-.4 6.5L333 7.5ZM322.2 0h2.9a2.2 2.2 0 0 0 1.4 1.9c.8.3 1.6.4 2.5.4.8 0 1.7-.2 2.5-.6a2.3 2.3 0 0 0 1-1.7h2.9a5.1 5.1 0 0 1-2 4.1c-1.3 1-3 1.5-4.6 1.4-1.6.1-3.2-.3-4.5-1.2a5.6 5.6 0 0 1-2-4.3ZM177 45c2.7 0 5.4.7 7.7 2 2 1.3 3.6 3 4.6 5.1 1 2 1.5 4.3 1.5 6.6 0 2.7-.6 5.3-1.9 7.6A12 12 0 0 1 184 71a15 15 0 0 1-7 1.6 13.6 13.6 0 0 1-10-3.6 14 14 0 0 1-3.7-10.4c0-2.5.6-5 1.8-7.1a12 12 0 0 1 4.8-4.7A15 15 0 0 1 177 45Zm33.1 6.8h-5v2.8c0 2.1-.2 4.2-.5 6.2a14 14 0 0 1-1.8 5h7.3v-14Zm-13.3-6.1h22v20.2h2.2V78h-8.2v-6h-12.3v6h-8.2V65.9h2.2c1-1.9 1.5-3.8 1.8-5.8.4-2.5.5-5 .5-7.6v-6.8ZM92.7 61v-4.8h.7c1 .1 2.1 0 3-.5a2.2 2.2 0 0 0 1.2-2.1 2 2 0 0 0-1-1.8 5 5 0 0 0-2.7-.6c-.8 0-1.7.2-2.4.6a2.9 2.9 0 0 0-1.3 2H83c0-1.8.7-3.6 1.9-5a9.6 9.6 0 0 1 4-2.8c1.8-.6 3.6-1 5.3-.9 2.9 0 5.7.6 8.1 2.1a6.5 6.5 0 0 1 3.1 5.4c0 1.3-.3 2.5-1 3.5s-1.7 1.8-2.8 2.4c1.3.4 2.4 1 3.3 2a6.1 6.1 0 0 1 1.2 4.1 6.8 6.8 0 0 1-3 5.9 15.8 15.8 0 0 1-9 2.1 14 14 0 0 1-8.7-2.3 10 10 0 0 1-3.5-7.5h7.2c.1 1 .6 2 1.4 2.8 1 .7 2.2 1 3.4 1 1.1 0 2.2-.3 3.2-.9a2.3 2.3 0 0 0 1-2 2.3 2.3 0 0 0-1.4-2.2 8.9 8.9 0 0 0-3.5-.5h-.6Zm25.6 2h5.5l-2.8-9.4-2.7 9.4Zm-1.6-17.3h8.8l9.3 26.2h-8.6l-1-3.5h-8.5l-1 3.5h-8.3l9.3-26.2Zm29 15.3v4.8h3.7c.9 0 1.8 0 2.6-.4a2 2 0 0 0 1-2 2 2 0 0 0-1.3-2c-1-.4-2.2-.5-3.4-.4h-2.7Zm0-9.2v4.4h3.4c.8 0 1.5-.1 2.1-.5a2 2 0 0 0 .9-1.8c0-1-.4-1.6-1.1-1.7-.8-.3-1.6-.4-2.4-.3h-3ZM137 72V45.8h12.5c1.8 0 3.6.1 5.4.5 1.4.3 2.7 1 3.8 2 1 1.1 1.5 2.6 1.4 4 0 1.3-.4 2.5-1 3.5a8 8 0 0 1-2.4 2.3c1.3.3 2.5 1 3.2 2.2a6.6 6.6 0 0 1 1.2 3.8 6.7 6.7 0 0 1-3.1 6.1c-2.5 1.4-5.4 2-8.2 1.8H137Zm40-20.5c-1.1 0-2.2.4-3 1.1-.8.8-1.3 1.7-1.6 2.8a13.3 13.3 0 0 0 0 6.9c.2 1 .8 2 1.5 2.8a4.3 4.3 0 0 0 3.2 1.2 4.4 4.4 0 0 0 4-2.1c.8-1.7 1.2-3.5 1.2-5.4 0-1.2-.2-2.4-.6-3.5-.3-1-.9-2-1.7-2.7a4.5 4.5 0 0 0-3-1.1ZM63.6 43.6l-25.4-25 25.4 13.5v11.5ZM37.1 10.2l-25.2 25 13.5-25h11.7ZM11.7 40.1l21.7-21.5L55.2 40 33.4 61.5 11.7 40Zm-8.3-3.6 25.4 24.9L3.4 48.1V36.5Zm26.4 33.2 25.5-25.1-13.8 25H29.8ZM67 50V30.2l-15.3-8L43.6 7H23.4l-8 15.2-15.4 8V50l15.4 8 8 15h20.2l8-15L67 50Z" fill="#D22538"/></svg>
